!!!!SEGMENT: pl-wn--sd-xvi-o-236_anonim--kancjonal-zamoyskich-napis-nad-grobem-zacnej-krolowej-barbary-radziwilowny-co-chcesz-minac-postoj-malo.krn
!!!cenid: 15xx:794
!!!COM: Anonim
!!!COM-rismID: pe30004985
!!!CDT:
!!!CNT:
!!!GTL: Kancjonał Zamoyskich
!!!OTL: Napis nad grobem zacnej królowej Barbary Radziwiłowny/Co chcesz minąć postój mało
!!!PDT: 1558
!!!AGN:
!!!SMS-siglum: PL-Wn
!!!SMS-shelfmark: SD XVI.O.236
!!!SMS-shelfwork: G
!!!SMS-variant:
!!!SMS-altvar:
!!!NIFC-rismSourceID: 990071908
!!!NIFC-rismChildID: 990071908
!!!NIFC-islandoraID:
!!!URL-pdf-islandora:
!!!URL-scan: https://polona.pl/item/napis-nad-grobem-zacney-krolowey-barbary-radziwilowny-niegdy-bedacey-krolowy-polskiey,MjYzMzA0/3 @EN{Scan on Polona} @PL{Skany w portalu Polona}
!!!ONB-nifc: UWAGA: proszę zapisywać tylko teksty występujące bezpośrednio pod nutami
!!!AIN: 1 alto 1 bass 1 soprn 1 tenor
!!!key: d:dor
**kern	**text	**kern	**text	**text	**kern	**text	**mod-text	**kern	**text	**mod-text
*part4	*part4	*part3	*part3	*	*part2	*	*part3	*part1	*	*part3
*staff4	*staff4	*staff3	*staff3	*	*staff2	*	*staff3	*staff1	*	*staff3
*I"BASS,	*	*I"TENOR.	*	*	*I"ALT.	*	*	*I"CANTVS.	*	*
*mI"Basso	*	*mI"Tenore	*	*	*mI"Alto	*	*	*mI"Soprano	*	*
*I'B	*	*I'T	*	*	*I'A	*	*	*I'S	*	*
*Ibass	*	*Itenor	*	*	*Ialto	*	*	*Isoprn	*	*
*ICvox	*	*ICvox	*	*	*ICvox	*	*	*ICvox	*	*
*clefF4	*	*clefC4	*	*	*clefC3	*	*	*clefC1	*	*
*	*	*mclefGv2	*	*	*mclefG2	*	*	*mclefG2	*	*
*k[b-]	*	*k[b-]	*	*	*k[b-]	*	*	*k[b-]	*	*
*d:dor	*	*d:dor	*	*	*d:dor	*	*	*d:dor	*	*
*M2/1	*	*M2/1	*	*	*M2/1	*	*	*M2/1	*	*
*met(C)	*	*met(C)	*	*	*met(C)	*	*	*met(C)	*	*
*mmet(c)	*	*mmet(c)	*	*	*mmet(c)	*	*	*mmet(c)	*	*
=1-	=1-	=1-	=1-	=1-	=1-	=1-	=1-	=1-	=1-	=1-
!!LO:TX:t=P:problem:all\middle:global
*xywh-#6:682,519,2021,911	*	*xywh-#5:2922,482,2075,847	*	*	*xywh-#5:945,1923,1914,605	*	*	*xywh-#5:868,516,1984,670	*	*
1D	Co	1d	Co	.	1f	.	Co	1a	.	Co
2A\	chceſz	2c\	chceſz	.	2e\	.	chcesz	2a\	.	chcesz
!	!LO:MO:mod=-mni-	!	!	!	!	!	!	!	!	!
2D/	mi-	2d\	mni-	.	2f\	.	mni-	2a\	.	mni-
=2-	=2-	=2-	=2-	=2-	=2-	=2-	=2-	=2-	=2-	=2-
!	!LO:MO:mod=-mać	!	!LO:MO:mod=-mać	!	!	!	!	!	!	!
1A	-nąć	1c	-máć	.	4e\	.	-mać	1cc	.	-mać
.	.	.	.	.	4d\	.	.	.	.	.
.	.	.	.	.	4e\	.	.	.	.	.
.	.	.	.	.	4f\	.	.	.	.	.
2G\	po-	2d\	po-	.	2g\	.	po-	2b-\	.	po-
!	!LO:MO:mod=-stoj	!	!LO:MO:mod=-stoj	!	!	!	!	!	!	!
2F\	-ſtoy	1f\	-ſtoy	.	1a\	.	-stoj	2a\	.	-stoj
=3-	=3-	=3-	=3-	=3-	=3-	=3-	=3-	=3-	=3-	=3-
1B-	ma-	.	.	.	.	.	ma-	1dd	.	ma-
.	.	4e\	.	.	2g\	.	.	.	.	.
.	.	4d\	.	.	.	.	.	.	.	.
!	!LO:MO:mod=-ło	!	!LO:MO:mod=ma-	!	!	!	!	!	!	!
1A	-ło/	2f\	má-	.	1a	.	-ło	1cc	.	-ło
!	!	!	!LO:MO:mod=-ło	!	!	!	!	!	!	!
.	.	2e\	-ło/	.	.	.	.	.	.	.
*custos:A	*	*custos:c	*	*	*	*	*	*	*	*
=4-	=4-	=4-	=4-	=4-	=4-	=4-	=4-	=4-	=4-	=4-
*xywh-#6:682,1388,2005,659	*	*xywh-#5:2927,1313,2005,659	*	*	*	*	*	*	*	*
!LO:LB:g=original	!	!LO:LB:g=original	!	!	!	!	!	!	!	!
2r	.	2r	.	.	2r	.	.	2r	.	.
2A\	A	2c\	A	.	2e\	.	A	2cc\	.	A
2G\	do-	2d\	do-	.	2g\	.	do-	2b-\	.	do-
2A\	-wiedz	2c\	-wiedz	.	2e\	.	-wiedz	2a\	.	-wiedz
*	*	*	*	*	*	*	*	*custos:a	*	*
=5-	=5-	=5-	=5-	=5-	=5-	=5-	=5-	=5-	=5-	=5-
*	*	*	*	*	*	*	*	*xywh-#5:927,1154,1909,471	*	*
!	!	!	!	!	!	!	!LO:MO:mod=sie	!LO:LB:g=original	!	!LO:MO:mod=sie
1D	ſie	1d	ſie	.	1f	.	ſie	1a	.	ſie
*	*	*	*	*	*xywh-#5:945,2491,1909,445	*	*	*	*	*
*	*	*	*	*	*custos:f	*	*	*	*	*
!	!	!	!	!	!LO:LB:g=original	!	!	!	!	!
2F\	co	2A/	co	.	2f\	.	co	2a\	.	co
!	!	!	!LO:MO:mod=za	!	!	!	!LO:MO:mod=za	!	!	!LO:MO:mod=za
2C/	za	2c\	zá	.	2e\	.	zá	2g/	.	zá
=6-	=6-	=6-	=6-	=6-	=6-	=6-	=6-	=6-	=6-	=6-
!	!LO:MO:mod=cia-	!	!LO:MO:mod=cia-	!	!	!	!	!	!	!
1D	ćiá-	1A	ćiá-	.	1d	.	cia-	1f	.	cia-
1AA	-ło.	1A	-ło.	.	1c	.	-ło.	1e	.	-ło.
*custos:AA	*	*custos:A	*	*	*	*	*	*	*	*
=7-	=7-	=7-	=7-	=7-	=7-	=7-	=7-	=7-	=7-	=7-
*xywh-#6:666,2010,2016,654	*	*xywh-#5:2917,1951,2010,670	*	*	*	*	*	*	*	*
!LO:LB:g=original	!	!LO:LB:g=original	!	!	!	!	!	!	!	!
2r	.	2r	.	.	2r	.	.	2r	.	.
2AA/	Tu	2A/	Tu	.	2c/	.	Tu	2e/	.	Tu
2D/	le-	2A/	le-	.	2d\	.	le-	2f/	.	le-
2AA/	-ży	2A/	-ży	.	2c/	.	-ży	2e/	.	-ży
=8-	=8-	=8-	=8-	=8-	=8-	=8-	=8-	=8-	=8-	=8-
1D	w tym	1A	w tym	.	1d	.	w tym	1f	.	w tym
!	!LO:MO:mod=ma-	!	!LO:MO:mod=ma-	!	!	!	!	!	!	!
1BB-	má-	1B-	má-	.	1d	.	ma-	1f	.	ma-
=9-	=9-	=9-	=9-	=9-	=9-	=9-	=9-	=9-	=9-	=9-
1C	-łym	1G	-łym	.	2c/	.	-łym	1e	.	-łym
.	.	.	.	.	2.c/	.	gro-	.	.	.
1GG	gro-	1G	gro-	.	.	.	.	1d	.	gro-
!	!	!	!	!	!LO:SIC:s=4Bn	!	!	!	!	!
.	.	.	.	.	4B-/	.	.	.	.	.
*	*	*	*	*	*xywh-#5:934,2926,1903,831	*	*	*	*	*
*	*	*	*	*	*custos:B	*	*	*	*	*
!	!	!	!	!	!LO:LB:g=original	!	!	!	!	!
!	!	!	!	!	!LO:SIC:s=2B	!	!	!	!	!
.	.	.	.	.	2B-/	.	.	.	.	.
=10-	=10-	=10-	=10-	=10-	=10-	=10-	=10-	=10-	=10-	=10-
!	!LO:MO:mod=-bie	!	!LO:MO:mod=-bie	!	!	!	!	!	!	!
1C	-bie/	1G	-bie/	.	1c	.	-bie	1e	.	-bie
*xywh-#6:716,2667,1930,766	*	*xywh-#5:2924,2576,1978,793	*	*	*	*	*	*xywh-#5:916,1573,1925,504	*	*
*custos:C	*	*custos:c	*	*	*	*	*	*custos:e	*	*
!LO:LB:g=original	!	!LO:LB:g=original	!	!	!	!	!	!LO:LB:g=original	!	!
2r	.	2r	.	.	2r	.	.	2r	.	.
!	!LO:MO:mod=Wszak	!	!LO:MO:mod=Wszak	!	!	!	!	!	!	!
2C/	Wſſak	2c\	Wſſák	.	2G/	.	Wszak-	2e/	.	Wszak-
=11-	=11-	=11-	=11-	=11-	=11-	=11-	=11-	=11-	=11-	=11-
2D/	tym	2A/	tym	.	2d\	.	tym	2f/	.	tym
!	!LO:MO:mod=ma-	!	!LO:MO:mod=ma-	!	!	!	!	!	!	!
2AA/	má-	2A/	má-	.	2c\	.	ma-	2e/	.	ma-
2BB-/	-ło	2F/	-ło	.	2B-/	.	-ło	2d/	.	-ło
!	!LO:MO:mod=zmiesz-	!	!	!	!	!	!	!	!	!
2FF/	zmieſ-	2A/	zmieſz-	.	2c/	.	zmiesz-	2f/	.	zmiesz-
=12-	=12-	=12-	=12-	=12-	=12-	=12-	=12-	=12-	=12-	=12-
1GG	-kaſz	2.G/	-kaſz	.	1B-	.	-kasz	2e/	.	-kasz
.	.	.	.	.	.	.	.	2.d/	.	so-
.	.	4F/	.	.	.	.	.	.	.	.
!	!	!	!	!LO:MO:mod=.	!	!	!	!	!	!
1AA	ſo-	1E	ſo-	A	1A	.	so-	.	.	.
!	!	!	!	!	!	!	!	!LO:SIC:s=8c#L	!	!
.	.	.	.	.	.	.	.	8c/	.	.
!	!	!	!	!	!	!	!	!LO:SIC:s=8BnJ	!	!
.	.	.	.	.	.	.	.	8B-/	.	.
!	!	!	!	!	!	!	!	!LO:SIC:s=2c#	!	!
.	.	.	.	.	.	.	.	2c/	.	.
=13-	=13-	=13-	=13-	=13-	=13-	=13-	=13-	=13-	=13-	=13-
!	!	!	!LO:MO:mod=-bie.	!LO:MO:mod=.	!	!	!	!	!	!
0D/l	-bie.	0D/l	-bie	ij	0A/l	.	-bie.	0d/l	.	-bie.
==	==	==	==	==	==	==	==	==	==	==
*-	*-	*-	*-	*-	*-	*-	*-	*-	*-	*-
!!!system-decoration: [(s1,s2,s3,s4)]
!!!RDF**kern: > = above
!!!RDF**kern: < = below
!!LO:MO:ori
!!!RDF**kern: l = terminal long
!!LO:MO:end
!!!filter-modern: sic -sq | autostem -r | humtr -p | shed -e "s/-//B" |shed -e "s/^custos:/Xcustos:/I" | shed -e "s/TX(.*):t=P:/tx$1:t=P:/LG" | modori -m
!!!ENC-modern: Leszek Kubiak
!!!END-modern: 2022-07-21
!!!ENC: Katarzyna Serwa
!!!END: 2022-05-04
!!!ENC: Berenika Jozajtis
!!!END: 2022-04-20
!!!IIIF: https://polona.pl/iiif/item/MjYzMzA0/manifest.json
!!!ENC-iiif: Emilia Ziętek
!!!END-iiif: 2022-09-02
!!!YEC: Copyright 2022 Narodowy Instytut Fryderyka Chopina (https://polishscores.org)
!!!YEM: License CC-BY-4.0 (https://creativecommons.org/licenses/by/4.0)
